X: 2045
T: the HURDLE RACE
C:
Q: "Reel."
R: Reel.
%R: reel
B: James Kerr "Merry Melodies" v.2 p.8 #45
Z: 2016 John Chambers <jc:trillian.mit.edu>
M: C
L: 1/8
K: A
ue !segno!|:\
cA A/A/A A2EA | A,CEA cAec |\
[1 dB B/B/B B2FB | B,DFB dBfd :|\
[2 defd fgaf | ecdB A3 |]
ue |:\
cAeA EAcA | eAce fedc |\
[1 dBfB FBdB | fBdf bBed :|\
[2 defd fgaf | ecAc Bfed |]
